X:10
T:Cudland Cudy (Cuddle Me Cuddie)
C:from Edward Winder's ms2
M:9/8
L:1/8
K:G
cde cAA cAA|cde cAA B2G|cde cAA cAA|Bcd ded B2G:|
|:cde gee gee|cde gee g2e|cde gee gee|Bcd ded B2G:|
%%vskip 1cm
